X: 38105
T: Spootiskerry
R: reel
M: 4/4
K: Gmajor
G2DE GDEG|DEGA B2AB|G2DE GABd|eged B2AB|
G2DE GDEG|DEGA B4|g2ed edB2|dBAB G4:|g2ed edB2|
BABG E2DE|GABd eged|B2A2 A4|g2ed edB2|BABG E2DE|
GABd eged|B2G2 G4|g2ed edB2|BABG E2DE|GABd eged|
B2A2 AcBA|G2DE GDEG|DEGA B4|g2ed edB2|dBAB G4||

